src/assets/img/icons/duotone-icons/Home/Toilet.svg

<?xml version="1.0" encoding="UTF-8"?>
<svg width="24px" height="24px" viewBox="0 0 24 24" version="1.1" xmlns="http://www.w3.org/2000/svg" xmlns:xlink="http://www.w3.org/1999/xlink">
    <!-- Generator: Sketch 52.2 (67145) - http://www.bohemiancoding.com/sketch -->
    <title>Stockholm-icons / Home / Toilet</title>
    <desc>Created with Sketch.</desc>
    <g id="Stockholm-icons-/-Home-/-Toilet" stroke="none" stroke-width="1" fill="none" fill-rule="evenodd">
        <rect id="Rectangle-139" fill="#335EEA" opacity="0.3" x="6" y="1" width="12" height="4" rx="1"></rect>
        <path d="M17.8608177,12.8865418 C17.9519649,13.4062346 18,13.9461053 18,14.5 C18,18.6421356 15.3137085,22 12,22 C8.6862915,22 6,18.6421356 6,14.5 C6,13.9461053 6.04803512,13.4062346 6.13918227,12.8865418 L6.78100868,7.75193053 C6.90611589,6.75107289 7.7569179,6 8.76556444,6 L15.2344356,6 C16.2430821,6 17.0938841,6.75107289 17.2189913,7.75193053 L17.8608177,12.8865418 Z M12,20 C14.209139,20 16,17.7614237 16,15 C16,12.2385763 14.209139,10 12,10 C9.790861,10 8,12.2385763 8,15 C8,17.7614237 9.790861,20 12,20 Z" id="Combined-Shape" fill="#335EEA"></path>
        <path d="M11,14 L13,14 C13.2761424,14 13.5,14.2238576 13.5,14.5 L13.5,15.5 C13.5,16.3284271 12.8284271,17 12,17 L12,17 C11.1715729,17 10.5,16.3284271 10.5,15.5 L10.5,14.5 C10.5,14.2238576 10.7238576,14 11,14 Z" id="Rectangle-141" fill="#335EEA" opacity="0.3"></path>
    </g>
</svg>

<svg width="24" height="24" viewBox="0 0 24 24" xmlns="http://www.w3.org/2000/svg"><g fill="#335EEA" fill-rule="evenodd"><rect opacity=".3" x="6" y="1" width="12" height="4" rx="1"/><path d="M17.86 12.887c.092.52.14 1.06.14 1.613 0 4.142-2.686 7.5-6 7.5s-6-3.358-6-7.5c0-.554.048-1.094.14-1.613l.641-5.135A2 2 0 018.766 6h6.468a2 2 0 011.985 1.752l.642 5.135zM12 20c2.21 0 4-2.239 4-5s-1.79-5-4-5-4 2.239-4 5 1.79 5 4 5z"/><path d="M11 14h2a.5.5 0 01.5.5v1a1.5 1.5 0 01-3 0v-1a.5.5 0 01.5-.5z" opacity=".3"/></g></svg>
